X:1
T:Nils slängpolska
R:Slängpolska
O:Värmland
C: Nils Eriksson
Z:Anton Teljebäck
M:3/4
L:1/8
K:D
|:AB/c/ d(d d)d | cd Bc A2 | AB/c/ d(e e)e | eg bg a2 | 
a>a ea dg | f/e/d/c/ dd/e/ A2 | AB/c/ d(d d)d | e/d/A d4 :|
|: d>d fd gd | ad ff/a/ e2 | e>d c(c c)c | c/d/c B>B B/A/A |
d>d fd dg |ad ff/a/ e2 | A>B B(c c)c | d/c/d d>d d/e/e:|

